en/guide/_images/location-job/project/edit-project.svg

<svg width="16" height="16" viewBox="0 0 16 16" fill="none" xmlns="http://www.w3.org/2000/svg">
<path d="M13.2678 2.73206C13.7602 3.22443 14.1606 3.77395 14.469 4.35927L15.3891 3.43917C15.8841 2.94419 16.2023 2.13102 15.0356 0.964292C13.8689 -0.202434 13.0557 0.115764 12.5607 0.610739L11.6412 1.53022L11.6433 1.53224C12.2276 1.84049 12.7762 2.24043 13.2678 2.73206ZM4.72965 14.0987L13.3425 5.48581C13.0864 4.8702 12.7079 4.29347 12.2072 3.79272C11.7064 3.29197 11.1297 2.91353 10.5141 2.65738L1.90122 11.2702C1.65631 11.5151 1.46496 11.8083 1.33931 12.131L0.345732 14.6831C0.195459 15.0691 0.38655 15.5039 0.772543 15.6541C0.947541 15.7223 1.14173 15.7223 1.31673 15.6541L3.86885 14.6606C4.19161 14.5349 4.48474 14.3436 4.72965 14.0987Z" fill="black"/>
</svg>

<svg xmlns="http://www.w3.org/2000/svg" width="16" height="16" fill="none"><path fill="#000" d="M13.268 2.732a6.746 6.746 0 0 1 1.201 1.627l.92-.92c.495-.495.813-1.308-.353-2.475-1.167-1.166-1.98-.848-2.475-.353l-.92.92.002.001a6.748 6.748 0 0 1 1.625 1.2ZM4.73 14.1l8.612-8.613a5.234 5.234 0 0 0-1.135-1.693c-.5-.501-1.077-.88-1.693-1.136L1.901 11.27a2.5 2.5 0 0 0-.562.861l-.993 2.552a.75.75 0 0 0 .97.971l2.553-.993a2.5 2.5 0 0 0 .86-.562Z"/></svg>
